X:48
T:Aboyne Castle
S:Petrie's Collection of Strathspey Reels and Country Dances &c., 1790
Z:Steve Wyrick <sjwyrick'at'gmail'dot'com>, 3/20/04
N:Petrie's First Collection, page 21
L:1/8
M:2/4
K:Eb
"^Allegro"
 (E//F//G//A//)|B3     G|EEEG |CF/G/ A/G/F/E/|D/E/F/E/ B,(E//F//G//A//)|\
                BBBG    |EEEG |CA    G/F/E/D/|EEE                     :|
|:B            |ee/e/ eg|fBTB2|ff/f/ f/g/a/f/|ge       e2              |\
                bggb    |aff>a|ge    f/e/f/g/|[Ge][Ge][Ge]            :|
K:Cm
"^Minore Pia."
|:G      |c3d|edeg|       fedc |=B3G |\
"^cres:"  g3a|f3g |"^For."edc=B| ccc:|
K:Eb
"^Maggiore"
|:(c//B//c//d//)|"^Pia"[Ge] [G/e/] [G/e/] [Be][GB]|[Ac]   [A/c/][A/c/][Ac][Ac]|\
                "^For."[=Af][=A/f/][=A/f/][cf][ce]|[Fd]   [F/d/][F/d/][Bd][Bd]|
                       [Be] [B/e/] [B/e/] [Ge][GB]|[Ac]   [Bd]        [Be][Ac]|\
                       [GB] [FA]          [EG][DF]|[G,B,E][G,B,E]     [G,B,E]:|
%The original does not note the return to major -SW
